X: 10408
T: Donald MacLennan's Tuning Phrase
R: jig
M: 6/8
K: Amixolydian
|:efc dBc|ABG A3|ABA c3|ABA c3|
efc dBc|ABG A3|A2e efd|e3 e3:|
efg faf|efd c3|efc dBc|ABG A3|
efg faf|efd c2B|A2e efd|e3 e3:|
A3 c3|dcB c3|efc dBc|ABG A3|
A3 c3|dcB c2B|A2e efd|1 e3 e3:|2 e3 e2A||
efA faA|efA c3|efc dBc|ABG A3|
efA faA|efA c2B|A2e efd|1 e3 e2A:|2 e3 e3||

